outline/svg/contact_mail.svg

<svg xmlns="http://www.w3.org/2000/svg" width="24" height="24"><path fill="none" d="M0 0h24v24H0z"/><g fill="currentColor"><path d="M22 3H2C.9 3 0 3.9 0 5v14c0 1.1.9 2 2 2h20c1.1 0 1.99-.9 1.99-2L24 5c0-1.1-.9-2-2-2zm0 16H2V5h20v14z"/><path d="M21 6h-7v5h7V6zm-1 2l-2.5 1.75L15 8V7l2.5 1.75L20 7v1zM9 12c1.65 0 3-1.35 3-3s-1.35-3-3-3-3 1.35-3 3 1.35 3 3 3zm0-4c.55 0 1 .45 1 1s-.45 1-1 1-1-.45-1-1 .45-1 1-1zM15 16.59c0-2.5-3.97-3.58-6-3.58s-6 1.08-6 3.58V18h12v-1.41zM5.48 16c.74-.5 2.22-1 3.52-1s2.77.49 3.52 1H5.48z"/></g></svg>

<?xml version="1.0" encoding="utf-8"?>
<!-- Generator: Adobe Illustrator 19.1.0, SVG Export Plug-In . SVG Version: 6.00 Build 0)  -->
<svg version="1.1" xmlns="http://www.w3.org/2000/svg" xmlns:xlink="http://www.w3.org/1999/xlink" x="0px" y="0px" width="24px"
	 height="24px" viewBox="0 0 24 24" enable-background="new 0 0 24 24" xml:space="preserve">
<g id="Bounding_Boxes">
	<g id="ui_x5F_spec_x5F_header_copy_2">
	</g>
	<rect fill="none" width="24" height="24"/>
</g>
<g id="Outline" fill="currentColor">
	<g id="ui_x5F_spec_x5F_header">
	</g>
	<g>
		<path d="M22,3H2C0.9,3,0,3.9,0,5v14c0,1.1,0.9,2,2,2h20c1.1,0,1.99-0.9,1.99-2L24,5C24,3.9,23.1,3,22,3z M22,19H2V5h20V19z"/>
		<path d="M21,6h-7v5h7V6z M20,8l-2.5,1.75L15,8V7l2.5,1.75L20,7V8z"/>
		<path d="M9,12c1.65,0,3-1.35,3-3s-1.35-3-3-3S6,7.35,6,9S7.35,12,9,12z M9,8c0.55,0,1,0.45,1,1s-0.45,1-1,1S8,9.55,8,9S8.45,8,9,8
			z"/>
		<path d="M15,16.59c0-2.5-3.97-3.58-6-3.58s-6,1.08-6,3.58V18h12V16.59z M5.48,16c0.74-0.5,2.22-1,3.52-1s2.77,0.49,3.52,1H5.48z"
			/>
	</g>
</g>
</svg>
